X:9
T:Polska ur Sven Donats notbok (Ma5-9)
T:Norsk Dans
S:Efter Sven Donat
R:Polska
O:Småland
N:MA5, låt 9, sida 11
N:Jämför med Langdans
B:Sven Donats notbok
Z:Jonas Brunskog
M:3/4
L:1/8
K:Gm
|:g2 gf af|d2 dc d2| g2 gf af|d2 dc d2|
B2 BA Bd|BG AF DF|[GG,]2 [GG,]2 [GG,]2|[GG,]2 [GG,]2 [GG,]2:|
|:B2 BA Bd|BG AF DC|D2 D2 D2|D2 D2 D2|
B2 BA Bd|BG AF DF|[GG,]2 [GG,]2 [GG,]2|[GG,]2 [GG,]2 [GG,]2:|

